app/dist/common/images/shenzhen-mindray-b.svg

<svg height="18" viewBox="0 0 18 18" width="18" xmlns="http://www.w3.org/2000/svg"><path d="m0 0h18v18h-18z" fill="#f0f3fa"/><path d="m4 6h8.42s1.43-.07 1.58 1.5v4.5h-2v-4.18s.01-.82-.57-.82h-1.43v5h-2v-4.36s-.07-.64-.53-.64h-1.47v5h-2z" fill="#cf0009"/></svg>

<!-- by TradingView --><svg width="18" height="18" viewBox="0 0 18 18" xmlns="http://www.w3.org/2000/svg"><path fill="#F0F3FA" d="M0 0h18v18H0z"/><path d="M4 6h8.42s1.43-.07 1.58 1.5V12h-2V7.82s.01-.82-.57-.82H10v5H8V7.64S7.93 7 7.47 7H6v5H4V6Z" fill="#CF0009"/></svg>
